!!!COA:	Josquin des Prez
!!!CDT:	~1450-1521/08/27
!!!COA2:	de Silva
!!!OTL:	Te Deum
!!!AGN:	Motet
!!!SCT:	NJE 26.15
!!!SCA:	New Josquin Edition 26.15
!!!voices:	4
**kern	**kern	**kern	**kern
*staff4	*staff3	*staff2	*staff1
*Ivox	*Ivox	*Ivox	*Ivox
*I"Bassus	*I"Tenor	*I"Contratenor	*I"Discantus
*I'B	*I'T	*I'Ct	*I'D
*>[A,B,C,D,E,F,G,H,I,J,K,L,M,N,O,P,Q]	*>[A,B,C,D,E,F,G,H,I,J,K,L,M,N,O,P,Q]	*>[A,B,C,D,E,F,G,H,I,J,K,L,M,N,O,P,Q]	*>[A,B,C,D,E,F,G,H,I,J,K,L,M,N,O,P,Q]
*>A	*>A	*>A	*>A
*clefF4	*clefGv2	*clefGv2	*clefG2
*k[]	*k[]	*k[]	*k[]
*M2/1	*M2/1	*M2/1	*M2/1
*met(C|)	*met(C|)	*met(C|)	*met(C|)
!!section: Te eternum patrem
!!!OMD: Te eternum patrem
=1-	=1-	=1-	=1-
0r	0r	2.c\	0r
.	.	4c\	.
.	.	1c	.
=2	=2	=2	=2
0r	0r	2B\	0r
.	.	2A/	.
.	.	1B	.
=3	=3	=3	=3
0r	2.c\	2A/	0r
.	.	1c	.
.	4c\	.	.
.	1c	.	.
.	.	4B\	.
.	.	4A/	.
=4	=4	=4	=4
0r	2B\	2G/	0r
.	2A/	1A	.
.	1B	.	.
.	.	2G#i/	.
=5	=5	=5	=5
0r	2A/	1A	2.cc\
.	1c	.	.
.	.	.	4cc\
.	.	1e	1cc
.	4B\	.	.
.	4A/	.	.
=6	=6	=6	=6
0r	2G/	1e	2b\
.	1A	.	2a/
.	.	1e	1b
.	2G#i/	.	.
=7	=7	=7	=7
1F	1A	1f	[0a
[1F	2r	2r	.
.	[2c\	[2F/	.
=8	=8	=8	=8
1F]	2c\]	4F/]	0a]
.	.	4G/	.
.	2c\	4A/	.
.	.	4B\	.
1F	2.A/	2c\	.
.	.	4B\	.
.	4B\	4A/	.
=9	=9	=9	=9
2E\	2c\	2G/	1r
2D\	1d	1A	.
1E	.	.	1g
.	2c\	2G/	.
=10	=10	=10	=10
2D\	1d	1A	2f/
1F	.	.	1a
.	1r	2r	.
4E\	.	[2c\	4g/
4D\	.	.	4f/
=11	=11	=11	=11
2C/	1r	4c\]	2e/
.	.	4B\	.
1D	.	2A/	2d/
.	2r	1G	1e
2C/	2c\	.	.
=12	=12	=12	=12
0D	2B\	1.F	2d/
.	1A	.	1f
.	4G/	2G/	4e/
.	4F/	.	4d/
=13	=13	=13	=13
[0AA	1E	[0A	0c
.	[1e	.	.
=14	=14	=14	=14
0AA]	2e\]	1A]	1c
.	2e\	.	.
.	1e	2r	[1cc
.	.	[2c\	.
=15	=15	=15	=15
1A	1c	2c\]	1cc]
.	.	4B\	.
.	.	4A/	.
[1G	[1d	2B\	[1b
.	.	2G/	.
=16	=16	=16	=16
2G\]	2d\]	2B\	1b]
2C/	2c\	1c	.
1F	1A	.	[1a
.	.	2d\	.
=17	=17	=17	=17
0E	0B	1e	1a]
.	.	1e	1g#i
=18	=18	=18	=18
1AA	0A	1c	0a
1D	.	1f	.
=19	=19	=19	=19
1C	2.E/	1e	0r
.	4F/	.	.
2BB/	2G/	2d\	.
[2C/	[2E/	[2e\	.
=20	=20	=20	=20
2C/]	2E/]	2e\]	0r
4BB/	1A	4d\	.
4AA/	.	4c\	.
1BB	.	1d	.
.	2G#i/	.	.
=21	=21	=21	=21
2AA/	2A/	1c	2.e/
2A\	2c\	.	.
.	.	.	4f/
2G\	2B\	2r	2g/
[2A\	[2c\	2A/	[2e/
=22	=22	=22	=22
2A\]	2c\]	2c\	2e/]
2F\	4B\	2d\	1a
.	4A/	.	.
1E	1B	1e	.
.	.	.	2g#i/
=23	=23	=23	=23
2AA/	1A	2c\	1a
2D\	.	2A/	.
1GG	2.G/	2.B\	2.dd\
.	4A/	4c\	4cc\
=24	=24	=24	=24
2r	4B\	2d\	4b\
.	4c\	.	4a/
1G	2.d\	1B	1b
.	4c\	.	.
4F\	[2B\	[2e\	4a/
4E\	.	.	4g/
=25	=25	=25	=25
1F	2B\]	2e\]	1a
.	2A/	2d\	.
1E	1B	1e	1g
=26	=26	=26	=26
1F	1A	2.c\	2r
.	.	.	2a/
.	.	4d\	.
2E\	2r	2e\	2b\
2D\	2A/	2f\	[2dd\
=27	=27	=27	=27
1.G	2B\	1d	4dd\]
.	.	.	4cc\
.	2.d\	.	4b\
.	.	.	4a/
.	.	1d	2b\
.	4c\	.	.
2D\	4B\	.	[2a/
.	4A/	.	.
=28	=28	=28	=28
2F\	2c\	1r	2a/]
2G\	2B\	.	1g
1D	1A	2r	.
.	.	2d\	2f#i/
=29	=29	=29	=29
2r	[0Gl	2e\	[0gl
2.E\	.	2.g\	.
4D\	.	4f\	.
4C/	.	4e\	.
4BB/	.	4d\	.
=30	=30	=30	=30
2C/	0G_	2e\	0g_
2BB/	.	2.d\	.
1C	.	.	.
.	.	4G/	.
.	.	[2c\	.
=31	=31	=31	=31
1GG	0G_	2c\]	0g_
.	.	2B\	.
1C	.	1c	.
=32	=32	=32	=32
2BB/	0G_	2d\	0g_
1C	.	1e	.
2BB/	.	[2d\	.
=33	=33	=33	=33
1C	0G]	2d\]	0g]
.	.	2c\	.
1GGl	.	1dl	.
!!LO:LB:i:g=z
=34||	=34||	=34||	=34||
*>B	*>B	*>B	*>B
*clefF4	*clefGv2	*clefGv2	*clefG2
*k[]	*k[]	*k[]	*k[]
*M2/1	*M2/1	*M2/1	*M2/1
*met(C|)	*met(C|)	*met(C|)	*met(C|)
!!section: Tibi Cherubim et Seraphim
!!!OMD: Tibi Cherubim et Seraphim
0r	0r	2.A/	2.cc\
.	.	4B\	4cc\
.	.	4c\	2cc\
.	.	4d\	.
.	.	2e\	2cc\
=35	=35	=35	=35
0r	0r	2A/	1cc
.	.	2e\	.
.	.	2d\	2b\
.	.	[2e\	[2cc\
=36	=36	=36	=36
0r	0r	2e\]	2cc\]
.	.	4d\	4b\
.	.	4c\	4a/
.	.	2B\	2g/
.	.	[2d\	2a/
=37	=37	=37	=37
0r	0r	4d\]	2b\
.	.	4c\	.
.	.	2A/	1a
.	.	1B	.
.	.	.	2g#i/
=38	=38	=38	=38
2.AA/	4A/	[0A	[0a
.	4B\	.	.
.	4c\	.	.
4BB/	4d\	.	.
2C/	2e\	.	.
2D\	2f\	.	.
=39	=39	=39	=39
2C/	2e\	0A]	0a]
1D	1f	.	.
4C/	4e\	.	.
4BB/	4d\	.	.
=40	=40	=40	=40
2AA/	2c\	0r	0r
2D\	2d\	.	.
2C/	2e\	.	.
2D\	[2d\	.	.
=41	=41	=41	=41
1E	2d\]	0r	0r
.	2c#i\	.	.
1D	1d	.	.
=42	=42	=42	=42
1C	1e	1.c	1cc
1C	1e	.	2cc\
.	.	4B\	[2cc\
.	.	4A/	.
=43	=43	=43	=43
2.C/	1e	2G/	2cc\]
.	.	2.g\	4b\
4D\	.	.	4a/
4E\	2e\	.	2cc\
4F\	.	4a\	.
[2G\	[2d\	[2g\	[2b\
=44	=44	=44	=44
2G\]	2d\]	4g\]	2b\]
.	.	4f\	.
2A\	2c\	4e\	1a
.	.	4d\	.
1E	1B	1e	.
.	.	.	2g#i/
=45	=45	=45	=45
2AA/	[0A	2c\	[0a
1D	.	1f	.
4C/	.	4e\	.
4BB/	.	4d\	.
=46	=46	=46	=46
2D\	0A_	2f\	0a_
2C/	.	1e	.
1D	.	.	.
.	.	[2d\	.
=47	=47	=47	=47
1AA	0A]	2d\]	0a]
.	.	2c#i\	.
1D	.	1d	.
=48	=48	=48	=48
2C/	1E	1e	0r
4BB/	.	.	.
4AA/	.	.	.
1BB	1G	1r	.
=49	=49	=49	=49
[0AA	1A	2.e\	0r
.	.	4d\	.
.	1A	4c\	.
.	.	4B\	.
.	.	[2c\	.
=50	=50	=50	=50
0AA]	1A	2c\]	0e
.	.	4B\	.
.	.	4A/	.
.	1A	2.c\	.
.	.	4d\	.
=51	=51	=51	=51
1E	1G	1B	1g
2F\	2.c\	1A	1a
4E\	.	.	.
4D\	4d\	.	.
=52	=52	=52	=52
2C/	2e\	2e\	1a
1D	1f	1d	.
.	.	.	1a
2E\	[2e\	4c\	.
.	.	4B\	.
=53	=53	=53	=53
1F	2e\]	1A	1a
.	2d\	.	.
1E	2e\	1B	1g
.	4d\	.	.
.	4c\	.	.
=54	=54	=54	=54
1E	1B	2r	2r
.	.	2B\	2g/
1AA	1A	2c\	2a/
.	.	2A/	[2cc\
=55	=55	=55	=55
1E	2r	1G	2cc\]
.	2G/	.	2b\
1F	2A/	1r	1a
.	[2c\	.	.
=56	=56	=56	=56
1E	2c\]	2r	1g
.	2B\	2G/	.
1r	1A	2A/	1e
.	.	[2c\	.
=57	=57	=57	=57
2r	1E	2c\]	0r
2G\	.	2B\	.
2A\	1F	1A	.
[2c\	.	.	.
=58	=58	=58	=58
2c\]	1G	1E	2r
2B\	.	.	2g/
1A	1r	[1e	2a/
.	.	.	[2cc\
=59	=59	=59	=59
1E	2r	1e]	2cc\]
.	2G/	.	2b\
1F	2A/	1r	1a
.	[2c\	.	.
=60	=60	=60	=60
1E	2c\]	1e	1g
.	4B\	.	.
.	4A/	.	.
4E\	1B	2e\	2r
4D\	.	.	.
4C/	.	[2e\	2g/
4BB/	.	.	.
=61	=61	=61	=61
1AA	1c	2e\]	1a
.	.	4d\	.
.	.	4c\	.
[1GG	[1d	2B\	1b
.	.	[2d\	.
=62	=62	=62	=62
1GG]	2d\]	4d\]	2b\
.	.	4c\	.
.	1d	4B\	1b
.	.	4A/	.
[1G	.	4G/	.
.	.	4A/	.
.	4c\	4B\	4a/
.	4B\	4c\	4g/
=63	=63	=63	=63
2G\]	1d	4d\	2b\
.	.	4e\	.
2D\	.	1f	1a
2F\	2c\	.	.
2G\	2B\	2e\	[2g/
=64	=64	=64	=64
1D	1A	1d	2g/]
.	.	.	2f#i/
1GGl	1Gl	1dl	1gl
!!LO:LB:i:g=z
=65||	=65||	=65||	=65||
*>C	*>C	*>C	*>C
*clefF4	*clefGv2	*clefGv2	*clefG2
*k[]	*k[]	*k[]	*k[]
*M2/1	*M2/1	*M2/1	*M2/1
*met(C|)	*met(C|)	*met(C|)	*met(C|)
!!section: Sanctus
!!!OMD: Sanctus
0r	0r	1E	0r
.	.	1G	.
=66	=66	=66	=66
0r	0r	1.A	0r
.	.	2B\	.
=67	=67	=67	=67
0AA	0r	1.c	0r
.	.	4B\	.
.	.	4A/	.
=68	=68	=68	=68
0C	0r	1G	0e
.	.	1c	.
=69	=69	=69	=69
0D	0r	2B\	0f
.	.	1A	.
.	.	4G/	.
.	.	4F/	.
=70	=70	=70	=70
[0E	0r	4E/	[0g
.	.	4F/	.
.	.	4G/	.
.	.	4A/	.
.	.	2B\	.
.	.	2c\	.
=71	=71	=71	=71
0E_	0r	2B\	0g_
.	.	2E/	.
.	.	2.G/	.
.	.	4A/	.
=72	=72	=72	=72
0E_	0r	2B\	0g_
.	.	2c\	.
.	.	2B\	.
.	.	[2E/	.
=73	=73	=73	=73
0E]	0r	4E/]	0g]
.	.	4F/	.
.	.	4G/	.
.	.	4A/	.
.	.	2B\	.
.	.	2c\	.
=74	=74	=74	=74
[0F	0r	1A	[0a
.	.	2r	.
.	.	[2c\	.
=75	=75	=75	=75
0F]	0r	2c\]	0a]
.	.	4B\	.
.	.	4A/	.
.	.	2c\	.
.	.	2d\	.
=76	=76	=76	=76
[0E	4E/	1e	[0g
.	4F/	.	.
.	4G/	.	.
.	4A/	.	.
.	2B\	4E/	.
.	.	4F/	.
.	2c\	4G/	.
.	.	4A/	.
=77	=77	=77	=77
0E_	2B\	2B\	0g_
.	2E/	2c\	.
.	2.G/	2B\	.
.	.	[2E/	.
.	4A/	.	.
=78	=78	=78	=78
0E_	2B\	4E/]	0g_
.	.	4F/	.
.	2c\	4G/	.
.	.	4A/	.
.	2B\	2B\	.
.	[2E/	2c\	.
=79	=79	=79	=79
0E]	4E/]	1B	0g]
.	4F/	.	.
.	4G/	.	.
.	4A/	.	.
.	2B\	1E	.
.	2E/	.	.
=80	=80	=80	=80
0AA	2.A/	2r	[0el
.	.	1c	.
.	4B\	.	.
.	4c\	.	.
.	4d\	.	.
.	[2e\	4B\	.
.	.	4A/	.
=81	=81	=81	=81
0E	2e\]	1G	0e_
.	4d\	.	.
.	4c\	.	.
.	1B	1G	.
=82	=82	=82	=82
[0AAl	[0Al	1.A	0e_
.	.	4G/	.
.	.	4F/	.
=83	=83	=83	=83
0AA_	0A_	2E/	0e_
.	.	1A	.
.	.	4G/	.
.	.	4F/	.
=84	=84	=84	=84
0AA]	0A]	0El	0e]
!!LO:LB:i:g=z
=85||	=85||	=85||	=85||
*>D	*>D	*>D	*>D
*clefF4	*clefGv2	*clefGv2	*clefG2
*k[]	*k[]	*k[]	*k[]
*M2/1	*M2/1	*M2/1	*M2/1
*met(C|)	*met(C|)	*met(C|)	*met(C|)
!!section: Pleni
!!!OMD: Pleni
0r	1r	0r	1cc
.	1c	.	2cc\
.	.	.	[2cc\
=86	=86	=86	=86
1F	2c\	1r	2cc\]
.	1c	.	4b\
.	.	.	4a/
2F\	.	1f	1cc
[2F\	4B\	.	.
.	4A/	.	.
=87	=87	=87	=87
2F\]	1c	2f\	[0a
4E\	.	1f	.
4D\	.	.	.
1F	[1A	.	.
.	.	4e\	.
.	.	4d\	.
=88	=88	=88	=88
0D	1A]	1f	0a_
.	1A	2.d\	.
.	.	4e\	.
=89	=89	=89	=89
1.D	[0A	4f\	0a]
.	.	4g\	.
.	.	1f	.
2C/	.	[2e\	.
=90	=90	=90	=90
1D	0A]	2e\]	1r
.	.	2d\	.
1AA	.	[1e	1a
=91	=91	=91	=91
1.A	0r	1e]	1.cc
.	.	1e	.
2G\	.	.	2b\
=92	=92	=92	=92
1A	2r	0e	1a
.	1c	.	.
1E	.	.	1g
.	2B\	.	.
=93	=93	=93	=93
1A	1c	0r	1cc
2F\	1d	.	2a/
[2G\	.	.	[2b\
=94	=94	=94	=94
4G\]	0B	1r	4b\]
4F\	.	.	4a/
4E\	.	.	4g#i/
4D\	.	.	4f#i/
1E	.	1e	1g#i
=95	=95	=95	=95
1AA	0A	2e\	0a
.	.	1e	.
2r	.	.	.
[2AA/	.	4d\	.
.	.	4c\	.
=96	=96	=96	=96
4AA/]	1E	1e	0r
4BB/	.	.	.
2C/	.	.	.
1BB	1G	1d	.
=97	=97	=97	=97
1AA	1A	2c\	1e
.	.	4B\	.
.	.	4A/	.
2E\	1G	1B	1g
[2G\	.	.	.
=98	=98	=98	=98
2G\]	1c	1A	1a
2F\	.	.	.
2G\	1B	2B\	1g
2B\	.	[2d\	.
=99	=99	=99	=99
1A	1e	2d\]	1cc
.	.	2c\	.
2.G\	1r	2d\	2.b\
.	.	2G/	.
4F\	.	.	4a/
=100	=100	=100	=100
4E\	2r	2.c\	4g/
4D\	.	.	4f/
1C	1e	.	1e
.	.	4d\	.
.	.	2e\	.
2D\	4d\	2f\	[2a/
.	4c\	.	.
=101	=101	=101	=101
1E	1B	1e	2a/]
.	.	.	2g#i/
1AA	2A/	2r	1a
.	[2c\	2A/	.
=102	=102	=102	=102
1E	2c\]	2A/	1r
.	2B\	2G/	.
1F	1A	2A/	2r
.	.	[2c\	[2a/
=103	=103	=103	=103
1E	1E	2c\]	2a/]
.	.	2B\	2g/
1AA	2r	1A	2a/
.	[2A/	.	[2cc\
=104	=104	=104	=104
1r	2A/]	1E	2cc\]
.	2G/	.	2b\
2r	2A/	1F	1a
[2A\	[2c\	.	.
=105	=105	=105	=105
2A\]	2c\]	1E	1e
2G\	2B\	.	.
2A\	1A	2r	1e
[2c\	.	[2A/	.
=106	=106	=106	=106
2c\]	1E	2A/]	1r
2B\	.	2G/	.
1A	1F	2A/	2r
.	.	[2c\	[2a/
=107	=107	=107	=107
1E	1E	2c\]	2a/]
.	.	2B\	2g/
1AA	2r	1A	2a/
.	[2A/	.	[2cc\
=108	=108	=108	=108
1r	2A/]	1E	2cc\]
.	2G/	.	2b\
2r	2A/	1F	1a
[2A\	[2c\	.	.
=109	=109	=109	=109
2A\]	2c\]	1E	1e
2G\	2B\	.	.
2A\	1A	2r	1e
[2c\	.	[2A/	.
=110	=110	=110	=110
2c\]	1E	2A/]	1r
2B\	.	2G/	.
1A	1F	2A/	2r
.	.	[2c\	[2a/
=111	=111	=111	=111
1E	1E	2c\]	2a/]
.	.	2B\	2g/
1AA	2r	2c\	2a/
.	[2A/	2e\	[2cc\
=112	=112	=112	=112
1r	2A/]	1d	2cc\]
.	2G/	.	2b\
2r	2A/	1c	1cc
2A\	[2c\	.	.
=113	=113	=113	=113
1.G	2c\]	1r	2.dd\
.	2B\	.	.
.	.	.	4cc\
.	2.d\	2r	2b\
2D\	.	[2d\	[2a/
.	4c\	.	.
=114	=114	=114	=114
1E	2B\	2d\]	2a/]
.	2G/	2c\	1g
1D	1A	1d	.
.	.	.	2f#i/
=115	=115	=115	=115
1GG	[0Gl	2r	[0gl
.	.	2d\	.
1r	.	2e\	.
.	.	2d\	.
=116	=116	=116	=116
2r	0G_	2.g\	0g_
1C	.	.	.
.	.	4f\	.
.	.	2e\	.
2BB/	.	[2d\	.
=117	=117	=117	=117
1C	0G_	2d\]	0g_
.	.	1c	.
1GG	.	.	.
.	.	2B\	.
=118	=118	=118	=118
2.C/	0G_	1c	0g_
4D\	.	.	.
2E\	.	2B\	.
2C/	.	2c\	.
=119	=119	=119	=119
1G	0G_	1d	0g_
1C	.	1e	.
=120	=120	=120	=120
1.G	0G_	[0dl	0g_
2GG/	.	.	.
=121	=121	=121	=121
0GGl	0G]	0d]	0g]
!!LO:LB:i:g=z
=122||	=122||	=122||	=122||
*>E	*>E	*>E	*>E
*clefF4	*clefGv2	*clefGv2	*clefG2
*k[]	*k[]	*k[]	*k[]
*M2/1	*M2/1	*M2/1	*M2/1
*met(C|)	*met(C|)	*met(C|)	*met(C|)
!!section: Te prophetarum
!!!OMD: Te prophetarum
0r	0r	1A	1cc
.	.	2A/	1cc
.	.	[2A/	.
=123	=123	=123	=123
0r	0r	4A/]	1cc
.	.	4B\	.
.	.	4c\	.
.	.	4d\	.
.	.	2e\	2b\
.	.	2f\	2a/
=124	=124	=124	=124
1r	1r	2.g\	1b
.	.	4f\	.
1AA	1A	4e\	[1a
.	.	4d\	.
.	.	[2e\	.
=125	=125	=125	=125
2AA/	4A/	4e\]	0a]
.	4B\	4d\	.
2.AA/	4c\	4c\	.
.	4d\	4B\	.
.	[1e	1c	.
4BB/	.	.	.
4C/	.	.	.
4D\	.	.	.
=126	=126	=126	=126
1E	1e]	1B	0r
2D\	2f\	2r	.
[2G\	[2e\	[2B\	.
=127	=127	=127	=127
2G\]	4e\]	4B\]	1r
.	4d\	4A/	.
4F\	1c	1G	.
4E\	.	.	.
1D	.	.	1d
.	2B\	2F/	.
=128	=128	=128	=128
[0C	1c	0G	2.e/
.	.	.	4f/
.	2r	.	4g/
.	.	.	4a/
.	[2c\	.	[2g/
=129	=129	=129	=129
0C]	4c\]	1r	2g/]
.	4B\	.	.
.	2A/	.	1f
.	1G	1c	.
.	.	.	2e/
=130	=130	=130	=130
1FF	2F/	2A/	0f
.	2.A/	2.c\	.
2r	.	.	.
.	4G/	4B\	.
2FF/	4F/	4A/	.
.	4E/	4G/	.
=131	=131	=131	=131
2FF/	2D/	2F/	1r
2GG/	1G	2E/	.
1AA	.	1C	2r
.	2F/	.	[2c/
=132	=132	=132	=132
1GG	1.G	1D	2c/]
.	.	.	2B/
2r	.	1C	1c
[2G\	4F/	.	.
.	4E/	.	.
=133	=133	=133	=133
2G\]	1D	0r	2r
2F\	.	.	1f
1G	1C	.	.
.	.	.	2e/
=134	=134	=134	=134
1r	1D	2r	1f
.	.	1c	.
1G	1C	.	2e/
.	.	2B\	[2g/
=135	=135	=135	=135
2E\	2r	1c	2g/]
2F\	1c	.	4f/
.	.	.	4e/
1G	.	1g	1d
.	2B\	.	.
=136	=136	=136	=136
1A	1c	1e	2c/
.	.	.	2cc\
1D	1d	1f	4b\
.	.	.	4a/
.	.	.	[2a/
=137	=137	=137	=137
0E	0B	0e	2a/]
.	.	.	4g#i/
.	.	.	4f#i/
.	.	.	1g#i
=138	=138	=138	=138
1AA	1.A	1c	0a
1AA	.	2r	.
.	[2c\	2A/	.
=139	=139	=139	=139
1E	2c\]	2A/	1r
.	2B\	2G/	.
1F	1A	2A/	2r
.	.	[2c\	2a/
=140	=140	=140	=140
1E	1E	2c\]	2a/
.	.	2B\	2g/
1AA	2r	2A/	2a/
.	2A/	4G/	[2cc\
.	.	4F/	.
=141	=141	=141	=141
1r	2A/	1E	2cc\]
.	2G/	.	2b\
2r	2A/	[1e	2a/
2A\	[2c\	.	4g/
.	.	.	4f/
=142	=142	=142	=142
2A\	2c\]	0e_	1e
2G\	2B\	.	.
2A\	2A/	.	2r
[2c\	4G/	.	2a/
.	4F/	.	.
=143	=143	=143	=143
2c\]	1E	1e]	2a/
2B\	.	.	2g/
2A\	2r	1r	2a/
4G\	2A/	.	[2cc\
4F\	.	.	.
=144	=144	=144	=144
1E	2A/	0r	2cc\]
.	2G/	.	2b\
2F\	2A/	.	2a/
4E\	2B\	.	4g/
4D\	.	.	4f/
=145	=145	=145	=145
1C	1c	2r	1e
.	.	2e\	.
1F	2r	2e\	1a
.	2A/	2d\	.
=146	=146	=146	=146
1E	2B\	2e\	1g
.	2G/	1g	.
1D	2.A/	.	1r
.	.	2f\	.
.	4B\	.	.
=147	=147	=147	=147
2.C/	1c	2e\	2r
.	.	4d\	1g
4D\	.	4c\	.
2E\	2r	2B\	.
2C/	2e\	2c\	[2cc\
=148	=148	=148	=148
1G	1d	1G	2cc\]
.	.	.	2b\
1C	1c	1r	2cc\
.	.	.	2cc\
=149	=149	=149	=149
1G	2d\	1g	2.b\
.	1e	.	.
.	.	.	4a/
2C/	.	2e\	4g/
.	.	.	4f/
[2F\	2c\	[2f\	[2a/
=150	=150	=150	=150
4F\]	2d\	2f\]	2a/]
4D\	.	.	.
2G\	2B\	2e\	1g
1D	2.A/	1d	.
.	.	.	2f#i/
.	4B\	.	.
=151	=151	=151	=151
1.C	1c	2.e\	[0gl
.	.	4d\	.
.	[1Gl	4c\	.
.	.	4B\	.
2BB/	.	[2d\	.
=152	=152	=152	=152
1C	0G_	2d\]	0g_
.	.	1c	.
1G	.	.	.
.	.	2B\	.
=153	=153	=153	=153
0Cl	0G]	0cl	0g]
!!LO:LB:i:g=z
=154||	=154||	=154||	=154||
*>F	*>F	*>F	*>F
*clefF4	*clefGv2	*clefGv2	*clefG2
*k[]	*k[]	*k[]	*k[]
*M2/1	*M2/1	*M2/1	*M2/1
*met(C|)	*met(C|)	*met(C|)	*met(C|)
!!section: Te per orbem terrarum
!!!OMD: Te per orbem terrarum
2.AA/	1c	0r	0r
4BB/	.	.	.
4C/	1c	.	.
4D\	.	.	.
2E\	.	.	.
=155	=155	=155	=155
2AA/	0c	0r	0r
1C	.	.	.
4BB/	.	.	.
4AA/	.	.	.
=156	=156	=156	=156
2GG/	2B\	0r	0r
1AA	2A/	.	.
.	1B	.	.
2GG#i/	.	.	.
=157	=157	=157	=157
1AA	2.A/	1.e	1cc
.	4B\	.	.
1r	4c\	.	1cc
.	4d\	.	.
.	2e\	2e\	.
=158	=158	=158	=158
2r	2A/	1e	0cc
2.AA/	1c	.	.
.	.	1e	.
4BB/	.	.	.
4C/	4B\	.	.
4D\	4A/	.	.
=159	=159	=159	=159
2E\	2G/	0e	2b\
2AA/	1A	.	2a/
1E	.	.	1b
.	2G#i/	.	.
=160	=160	=160	=160
0F	0A	1c	2a/
.	.	.	1cc
.	.	1d	.
.	.	.	4b\
.	.	.	4a/
=161	=161	=161	=161
1E	1B	0e	2g/
.	.	.	1a
2r	1E	.	.
2E\	.	.	2g#i/
=162	=162	=162	=162
2F\	2A/	1r	1a
1A	2c\	.	.
.	1B	2r	1r
2G\	.	2E/	.
=163	=163	=163	=163
1A	1A	2F/	1r
.	.	1A	.
1E	1r	.	2r
.	.	2G/	2e/
=164	=164	=164	=164
1AA	1r	2A/	2f/
.	.	2c\	1a
1E	2r	1B	.
.	2E/	.	2g/
=165	=165	=165	=165
1AA	2F/	1A	2a/
.	1A	.	2cc\
2r	.	1E	1b
2E\	2G/	.	.
=166	=166	=166	=166
2F\	2A/	1r	1a
1A	2c\	.	.
.	1B	2r	1r
2G\	.	2E/	.
=167	=167	=167	=167
1A	1A	2F/	1r
.	.	1A	.
1E	1r	.	2r
.	.	2G/	2e/
=168	=168	=168	=168
1AA	1r	2A/	2f/
.	.	2c\	1a
1E	2r	1B	.
.	2E/	.	2g/
=169	=169	=169	=169
1AA	2F/	1A	2a/
.	1A	.	2cc\
2r	.	1E	1b
2E\	2G/	.	.
=170	=170	=170	=170
2F\	2A/	1r	1a
1A	2c\	.	.
.	1B	2r	1r
2G\	.	2E/	.
=171	=171	=171	=171
2A\	1A	2F/	0r
1c	.	1A	.
.	1r	.	.
2B\	.	2G/	.
=172	=172	=172	=172
1c	0r	2A/	1r
.	.	1c	.
1G	.	.	2r
.	.	2B\	2g/
=173	=173	=173	=173
2F\	1r	1c	2a/
2A\	.	.	1cc
1E	2E/	1G	.
.	2G/	.	2b\
=174	=174	=174	=174
1AA	2A/	1A	1cc
.	1c	.	.
1E	.	1E	1g
.	2B\	.	.
=175	=175	=175	=175
2.AA/	1c	[0e	1a
4BB/	.	.	.
2.C/	2G/	.	1e
.	[2c\	.	.
4D\	.	.	.
=176	=176	=176	=176
1E	2c\]	1e]	1g
.	2B\	.	.
1F	1A	1c	1a
=177	=177	=177	=177
1D	2.d\	1f	1f
.	4c\	.	.
2E\	2B\	2e\	2g/
2F\	2A/	2A/	[2a/
=178	=178	=178	=178
2G\	2B\	2d\	2a/]
2C/	2c\	2e\	1g
1D	1A	[1d	.
.	.	.	2f#i/
=179	=179	=179	=179
2BB/	2.G/	2d\]	1g
2C/	.	2.e\	.
.	4E/	.	.
2AA/	2F/	.	2a/
.	.	4d\	.
2GG/	[2G/	2B\	2b\
=180	=180	=180	=180
1AA	2G/]	0dl	2cc\
.	2F#i/	.	2cc\
1GGl	1Gl	.	1bl
!!LO:LB:i:g=z
=181||	=181||	=181||	=181||
*>G	*>G	*>G	*>G
*clefF4	*clefGv2	*clefGv2	*clefG2
*k[]	*k[]	*k[]	*k[]
*M3/1	*M3/1	*M3/1	*M3/1
*met(3)	*met(3)	*met(3)	*met(3)
!!section: Venerandum tuum
!!!OMD: Venerandum tuum
0AA	0c	0e	0cc
1AA	1c	1e	1cc
=182	=182	=182	=182
1AA	1c	1e	1cc
1AA	1c	1e	1a
1E	1B	1e	1g
=183	=183	=183	=183
1F	1A	1d	0a
0E	0B	0e	.
.	.	.	1g#i
=184	=184	=184	=184
0AA	0A	0e	0a
1r	1r	1r	1r
=185	=185	=185	=185
1D	1A	1d	1f
1D	1A	1d	1f
1D	1A	1d	1f
=186	=186	=186	=186
0GG	0G	1.B	1.d
.	.	2c\	2e/
1D	1A	1d	1f
=187	=187	=187	=187
1.C	0c	0G	1.e
2D\	.	.	2f/
1E	1B	1G	1g
=188	=188	=188	=188
*M3/3%2	*M3/3%2	*M3/3%2	*M2/1
*met()	*met()	*met()	*met(C|)
!!primary-mensuration: met(C|)
3%4F	3%4A	3%4c	1.a
3%2F	3%2A	3%2c	.
.	.	.	4g/
.	.	.	4f/
=189	=189	=189	=189
3%4.Cl	3%4.Gl	3%4.cl	0el
!!LO:LB:i:g=z
=190||	=190||	=190||	=190||
*>H	*>H	*>H	*>H
*clefF4	*clefGv2	*clefGv2	*clefG2
*k[]	*k[]	*k[]	*k[]
*M2/1	*M2/1	*M2/1	*M2/1
*met(C|)	*met(C|)	*met(C|)	*met(C|)
!!section: Tu rex glorie Christe
!!!OMD: Tu rex glorie Christe
1AA	0r	1A	0r
1AA	.	2A/	.
.	.	[2c\	.
=191	=191	=191	=191
1AA	0r	2c\]	0r
.	.	4B\	.
.	.	4A/	.
1GG	.	4B\	.
.	.	4A/	.
.	.	4G/	.
.	.	4F/	.
=192	=192	=192	=192
2.AA/	1A	1.E	0r
4BB/	.	.	.
2C/	1A	.	.
[2D\	.	[2F/	.
=193	=193	=193	=193
2D\]	1A	2F/]	0r
2C/	.	1E	.
1BB	1G	.	.
.	.	2D/	.
=194	=194	=194	=194
0AA	1A	1E	1a
.	2A/	2r	1a
.	[2c\	[2e\	.
=195	=195	=195	=195
0r	2c\]	2e\]	1a
.	4B\	4d\	.
.	4A/	4c\	.
.	1B	1d	1g
=196	=196	=196	=196
0r	1A	1e	1a
.	2r	1f	2a/
.	2A/	.	[2cc\
=197	=197	=197	=197
0r	2A/	1e	2cc\]
.	2A/	.	4b\
.	.	.	4a/
.	2.E/	2.e\	4b\
.	.	.	4a/
.	.	.	4g/
.	4F/	4d\	4f/
=198	=198	=198	=198
0r	2G/	2B\	2e/
.	1A	1c	1f
.	2G/	[2B\	[2e/
=199	=199	=199	=199
0r	1F	2B\]	2e/]
.	.	2A/	2d/
.	1E	2.B\	1e
.	.	4E/	.
=200	=200	=200	=200
2.E\	0r	1e	2r
.	.	.	1b
4F\	.	.	.
2G\	.	2e\	.
[2A\	.	[2f\	2a/
=201	=201	=201	=201
2A\]	2r	2f\]	2b\
2G\	1B	1e	1cc
1F	.	.	.
.	2A/	2d\	4b\
.	.	.	4a/
=202	=202	=202	=202
[0El	1B	[0el	[0gl
.	2c\	.	.
.	4B\	.	.
.	4A/	.	.
=203	=203	=203	=203
0E]	2.G/	0e]	0g]
.	4A/	.	.
.	1Bl	.	.
!!LO:LB:i:g=z
=204||	=204||	=204||	=204||
*>I	*>I	*>I	*>I
*clefF4	*clefGv2	*clefGv2	*clefG2
*k[]	*k[]	*k[]	*k[]
*M2/1	*M2/1	*M2/1	*M2/1
*met(C|)	*met(C|)	*met(C|)	*met(C|)
!!section: Tu ad liberandum
!!!OMD: Tu ad liberandum
1.E	0r	1B	0r
.	.	1B	.
2E\	.	.	.
=205	=205	=205	=205
1E	0r	1.B	0r
1E	.	.	.
.	.	2B\	.
=206	=206	=206	=206
[0F	0r	2.A/	1a
.	.	4B\	.
.	.	4c\	1a
.	.	4d\	.
.	.	[2c\	.
=207	=207	=207	=207
0F]	0r	2c\]	2a/
.	.	4B\	2a/
.	.	4A/	.
.	.	2c\	1a
.	.	2d\	.
=208	=208	=208	=208
[0E	1.B	2.e\	2.g/
.	.	4f\	4a/
.	.	4g\	4b\
.	.	4a\	4cc\
.	2B\	[2g\	[2b\
=209	=209	=209	=209
0E]	1B	4g\]	2b\]
.	.	4f\	.
.	.	4e\	1a
.	.	4d\	.
.	1B	1e	.
.	.	.	2g#i/
=210	=210	=210	=210
1AA	0c	0e	0a
2r	.	.	.
[2AA/	.	.	.
=211	=211	=211	=211
2AA/]	0B	0r	0d
4GG/	.	.	.
4FF/	.	.	.
1GG	.	.	.
=212	=212	=212	=212
[0AA	0E	2.e\	2.c/
.	.	4d\	4d/
.	.	4c\	4e/
.	.	4B\	4f/
.	.	[2c\	[2e/
=213	=213	=213	=213
0AA]	0E	4c\]	2e/]
.	.	4B\	.
.	.	4A/	1d
.	.	4G/	.
.	.	[1A	.
.	.	.	2c#i/
=214	=214	=214	=214
0BB-	0D	2A/]	0d
.	.	4G/	.
.	.	4F/	.
.	.	1G	.
=215	=215	=215	=215
1AA	0E	1A	1c
1C	.	2.G/	2r
.	.	.	[2e/
.	.	4E/	.
=216	=216	=216	=216
0D	0F	1A	2e/]
.	.	.	4d/
.	.	.	4c/
.	.	2r	1d
.	.	2A/	.
=217	=217	=217	=217
1AA	1E	2.c\	0e
.	.	4d\	.
2r	1E	4c\	.
.	.	4B\	.
[2E\	.	4A/	.
.	.	4G/	.
=218	=218	=218	=218
2E\]	1r	1A	0r
2D\	.	.	.
1E	2r	1G	.
.	[2B\	.	.
=219	=219	=219	=219
1F	2B\]	0r	2r
.	2A/	.	1a
1E	1B	.	.
.	.	.	2g/
=220	=220	=220	=220
1AA	1c	2r	1a
.	.	1A	.
1r	1B	.	1b
.	.	2G/	.
=221	=221	=221	=221
2r	1E	1A	1a
1AA	.	.	.
.	1r	1B	1d
2GG/	.	.	.
=222	=222	=222	=222
1AA	2r	2c\	0r
.	1E	1A	.
1BB	.	.	.
.	2D/	2G#i/	.
=223	=223	=223	=223
1AA	1E	1A	2r
.	.	.	1e
1r	1F	2r	.
.	.	2A/	2d/
=224	=224	=224	=224
2r	1E	2B\	1e
1E	.	2c\	.
.	1r	1A	1f
2D\	.	.	.
=225	=225	=225	=225
1E	2r	1G	1e
.	1B	.	.
1F	.	2c\	2r
.	2A/	2d\	[2a/
=226	=226	=226	=226
1E	1B	1e	2a/]
.	.	.	2g/
1C	2.E/	1e	1cc
.	4F/	.	.
=227	=227	=227	=227
2BB/	2G/	2r	2dd\
2AA/	1A	2c\	2cc\
1BB	.	1d	1b
.	2G/	.	.
=228	=228	=228	=228
1AA	2A/	2c\	2.e/
.	2c\	1e	.
.	.	.	4f/
2E\	2B\	.	2g/
2F\	2A/	2d\	[2a/
=229	=229	=229	=229
1E	1B	1e	2a/]
.	.	.	2g#i/
1AA	2r	1r	1a
.	[2A/	.	.
=230	=230	=230	=230
1E	2A/]	0e	1r
.	2G/	.	.
1AA	1A	.	2r
.	.	.	[2a/
=231	=231	=231	=231
1E	1B	1e	2a/]
.	.	.	2g/
1AA	1A	1e	1a
=232	=232	=232	=232
1E	2G/	2r	1b
.	2E/	1e	.
1r	1F	.	1a
.	.	2d\	.
=233	=233	=233	=233
2r	1E	1e	1g
1E	.	.	.
.	1r	1f	1a
2D\	.	.	.
=234	=234	=234	=234
1E	0B	1e	1.g
[1G	.	[1d	.
.	.	.	4f/
.	.	.	4e/
=235	=235	=235	=235
1G]	1B	2d\]	1d
.	.	2B\	.
1C	2E/	1c	[1e
.	[2G/	.	.
=236	=236	=236	=236
0D	2G/]	0A	1e]
.	4F/	.	.
.	4E/	.	.
.	1F	.	1d
=237	=237	=237	=237
0AAl	0El	0Al	0el
!!LO:LB:i:g=z
=238||	=238||	=238||	=238||
*>J	*>J	*>J	*>J
*clefF4	*clefGv2	*clefGv2	*clefG2
*k[]	*k[]	*k[]	*k[]
*M2/1	*M2/1	*M2/1	*M2/1
*met(C|)	*met(C|)	*met(C|)	*met(C|)
!!section: Tu ad dexteram dei sedes
!!!OMD: Tu ad dexteram dei sedes
1.C	0r	1e	0r
.	.	1e	.
2C/	.	.	.
=239	=239	=239	=239
1C	0r	1.e	0r
1C	.	.	.
.	.	2e\	.
=240	=240	=240	=240
0G	0r	1.d	0r
.	.	4c\	.
.	.	4B\	.
=241	=241	=241	=241
[0F	1.c	1A	1.a
.	.	2A/	.
.	2c\	[2c\	2a/
=242	=242	=242	=242
1.F]	1c	4c\]	1.a
.	.	4B\	.
.	.	4A/	.
.	.	4G/	.
.	1c	1F	.
4E\	.	.	4g/
4D\	.	.	4f/
=243	=243	=243	=243
1C	1.c	1G	2.e/
.	.	.	4f/
2r	.	1r	4g/
.	.	.	4a/
[2G\	4B\	.	[2b\
.	4A/	.	.
=244	=244	=244	=244
2G\]	2G/	2c\	2b\]
2F\	2A/	2d\	1a
1E	1B	1e	.
.	.	.	2g#i/
=245	=245	=245	=245
1AA	1A	1e	1a
1r	1r	1r	1r
=246	=246	=246	=246
*M3/1	*M3/1	*M3/1	*M3/1
*met(3)	*met(3)	*met(3)	*met(3)
1F	1c	1A	1a
1F	1c	1A	1a
1F	1c	1A	1a
=247	=247	=247	=247
0C	0c	1.e	0g
.	.	2d\	.
1C	1e	2c\	1cc
.	.	2A/	.
=248	=248	=248	=248
1.G	1.d	0B	1.b
2F\	2A/	.	2a/
2E\	1B	1r	2g/
2D\	.	.	2f/
=249	=249	=249	=249
1C	1c	1e	1e
1.D	0A	1.d	1.f
2AA/	.	2B\	2e/
=250	=250	=250	=250
1C	1G	1c	0e
0D	0F	0A	.
.	.	.	1d
=251	=251	=251	=251
0.AAl	0.El	0.Al	0.el
!!LO:LB:i:g=z
=252||	=252||	=252||	=252||
*>K	*>K	*>K	*>K
*clefF4	*clefGv2	*clefGv2	*clefG2
*k[]	*k[]	*k[]	*k[]
*M2/1	*M2/1	*M2/1	*M2/1
*met(C|)	*met(C|)	*met(C|)	*met(C|)
!!section: Te ergo quaesumus
!!!OMD: Te ergo quaesumus
0r	0r	1A	0r
.	.	2A/	.
.	.	2A/	.
=253	=253	=253	=253
0r	0r	2.A/	0a
.	.	4B\	.
.	.	2c\	.
.	.	[2d\	.
=254	=254	=254	=254
0r	0r	4d\]	1a
.	.	4A/	.
.	.	2.c\	.
.	.	.	1a
.	.	4B\	.
.	.	4A/	.
.	.	4G/	.
=255	=255	=255	=255
0r	0r	2F/	1a
.	.	2c\	.
.	.	2d\	1a
.	.	[2f\	.
=256	=256	=256	=256
1AA	0A	2f\]	0a
.	.	4e\	.
.	.	4d\	.
2AA/	.	1e	.
2AA/	.	.	.
=257	=257	=257	=257
2.AA/	1A	1d	1r
4BB/	.	.	.
2C/	1A	2r	1a
[2D\	.	[2f\	.
=258	=258	=258	=258
4D\]	1A	4f\]	1a
4AA/	.	4e\	.
2.C/	.	2.e\	.
.	2A/	.	1cc
4BB/	.	4d\	.
4AA/	[2c\	4c\	.
4GG/	.	4B\	.
=259	=259	=259	=259
0FF	4c\]	1.A	2cc\
.	4B\	.	.
.	4A/	.	2.cc\
.	4G/	.	.
.	1F	.	.
.	.	.	4b\
.	.	[2c\	4a/
.	.	.	4g/
=260	=260	=260	=260
1FF	2r	4c\]	2.f/
.	.	4B\	.
.	1F	4A/	.
.	.	4G/	4g/
2.F\	.	[1F	[1a
.	[2A/	.	.
4E\	.	.	.
=261	=261	=261	=261
2D\	2A/]	2F/]	0a]
4C/	1G	2G/	.
4BB/	.	.	.
1AA	.	2A/	.
.	2F#i/	[2c\	.
=262	=262	=262	=262
0GG	0G	2c\]	1d
.	.	4B\	.
.	.	4A/	.
.	.	1B	2r
.	.	.	[2g/
=263	=263	=263	=263
0D	0r	1A	2g/]
.	.	.	4f/
.	.	.	4e/
.	.	2r	1f
.	.	2d\	.
=264	=264	=264	=264
[0E	0r	2B\	2.g/
.	.	1e	.
.	.	.	4a/
.	.	.	4b\
.	.	.	4cc\
.	.	4d\	[2b\
.	.	4c\	.
=265	=265	=265	=265
0E]	0r	2B\	2b\]
.	.	2c\	1a
.	.	1B	.
.	.	.	2g#i/
=266	=266	=266	=266
1.F	2r	1A	1a
.	2c\	.	.
.	1c	1r	2r
4E\	.	.	2a/
4D\	.	.	.
=267	=267	=267	=267
0C	2.c\	0e	1a
.	4B\	.	.
.	2c\	.	2.cc\
.	2G/	.	.
.	.	.	4b\
=268	=268	=268	=268
1C	2.c\	1e	2cc\
.	.	.	2g/
.	4B\	.	.
[1C	2c\	[1e	2.cc\
.	2G/	.	.
.	.	.	4b\
=269	=269	=269	=269
1C]	2.c\	1e]	2cc\
.	.	.	2g/
.	4B\	.	.
2FF/	2A/	2A/	2.cc\
[2F\	[2F/	[2c\	.
.	.	.	4b\
=270	=270	=270	=270
2F\]	2F/]	4c\]	2a/
.	.	4A/	.
2E\	2G/	1c	1g
1D	2A/	.	.
.	2F/	2B\	[2f/
=271	=271	=271	=271
1C	1G	1c	2f/]
.	.	.	2e/
[1FF	[1F	2r	[1f
.	.	2F/	.
=272	=272	=272	=272
2FF/]	1F]	2A/	1f]
2GG/	.	2B\	.
[1AA	1r	[1c	1r
=273	=273	=273	=273
2AA/]	0r	2c\]	0r
2BB/	.	4B\	.
.	.	4A/	.
[1C	.	1G	.
=274	=274	=274	=274
2C/]	0r	2r	0r
4BB/	.	2A/	.
4AA/	.	.	.
1GG	.	2B\	.
.	.	2G/	.
=275	=275	=275	=275
2r	0r	2B\	0r
2AA/	.	2c\	.
2BB/	.	[1d	.
2GG/	.	.	.
=276	=276	=276	=276
2BB/	0r	2d\]	0r
2C/	.	4c\	.
.	.	4B\	.
[1D	.	[1A	.
=277	=277	=277	=277
2D\]	0r	2A/]	0r
4C/	.	2B\	.
4BB/	.	.	.
2AA/	.	2.c\	.
[2C/	.	.	.
.	.	4d\	.
=278	=278	=278	=278
4C/]	2.c\	1e	1r
4BB/	.	.	.
4AA/	.	.	.
4GG/	4c\	.	.
1FF	2c\	1A	1a
.	2c\	.	.
=279	=279	=279	=279
1F	1c	1F	1a
[1BB-	1d	[1f	[1b-
=280	=280	=280	=280
1BB-]	1d	1f]	1b-]
1F	1c	1f	1a
=281	=281	=281	=281
[0Fl	[0cl	1.f	[0al
.	.	4e\	.
.	.	4d\	.
=282	=282	=282	=282
0F]	0c]	0fl	0a]
!!LO:LB:i:g=z
=283||	=283||	=283||	=283||
*>L	*>L	*>L	*>L
*clefF4	*clefGv2	*clefGv2	*clefG2
*k[]	*k[]	*k[]	*k[]
*M2/1	*M2/1	*M2/1	*M2/1
*met(C|)	*met(C|)	*met(C|)	*met(C|)
!!section: Quos precioso sanguine
!!!OMD: Quos precioso sanguine
1C	2.E/	0r	0r
.	4F/	.	.
2BB/	2G/	.	.
2AA/	[2A/	.	.
=284	=284	=284	=284
1BB	2A/]	1r	1r
.	2G#i/	.	.
1AA	1A	1c	2.e/
.	.	.	4f/
=285	=285	=285	=285
0r	0r	2B\	2g/
.	.	2A/	1a
.	.	1B	.
.	.	.	2g#i/
=286	=286	=286	=286
0r	0r	2.A/	1.a
.	.	4B\	.
.	.	4c\	.
.	.	4d\	.
.	.	[2e\	[2g/
=287	=287	=287	=287
0r	0r	4e\]	4g/]
.	.	4d\	4a/
.	.	1g	4b\
.	.	.	4cc\
.	.	.	2dd\
.	.	2e\	[2cc\
=288	=288	=288	=288
1r	1G	1d	2cc\]
.	.	.	2b\
2r	4A/	1c	1cc
.	4B\	.	.
2AA/	4c\	.	.
.	4d\	.	.
=289	=289	=289	=289
2.C/	1.e	0r	0r
4D\	.	.	.
4E\	.	.	.
4F\	.	.	.
[2G\	[2d\	.	.
=290	=290	=290	=290
2G\]	2d\]	0r	0r
1A	2.c\	.	.
.	4A/	.	.
4G\	[2e\	.	.
4F\	.	.	.
=291	=291	=291	=291
1G	2e\]	0r	0r
.	1d	.	.
2E\	.	.	.
2F\	[2c\	.	.
=292	=292	=292	=292
1D	2c\]	1r	1r
.	2B\	.	.
1C	1c	1e	1cc
=293	=293	=293	=293
0r	0r	2d\	2dd\
.	.	1c	1ee
.	.	4B\	4dd\
.	.	4A/	4cc\
=294	=294	=294	=294
0r	0r	2G/	2b\
.	.	1A	2.cc\
.	.	.	4b\
.	.	2c\	[2a/
=295	=295	=295	=295
1r	1r	1B	2a/]
.	.	.	2g#i/
1AA	1c	1A	1a
=296	=296	=296	=296
2BB/	2d\	0r	0r
1C	1e	.	.
4BB/	4d\	.	.
4AA/	4c\	.	.
=297	=297	=297	=297
2GG/	2B\	0r	0r
1AA	2.c\	.	.
.	4B\	.	.
2C/	[2A/	.	.
=298	=298	=298	=298
1BB	2A/]	1r	1r
.	2G/	.	.
1AA	2A/	[1e	2r
.	2c\	.	2a/
=299	=299	=299	=299
1E	1B	0e_	2a/
.	.	.	2g/
1AA	2r	.	2a/
.	2A/	.	[2cc\
=300	=300	=300	=300
1E	2A/	0e_	2cc\]
.	2G/	.	2b\
1AA	2A/	.	1a
.	2c\	.	.
=301	=301	=301	=301
1E	1B	1e]	1g
[1AA	2r	1e	1e
.	2A/	.	.
=302	=302	=302	=302
2AA/]	2A/	0c	2r
2AA/	2A/	.	2e/
1AA	2.c\	.	2e/
.	.	.	2e/
.	4B\	.	.
=303	=303	=303	=303
1E	1G	1B	2.g/
.	.	.	4f/
1AA	2.A/	[1c	4e/
.	.	.	4d/
.	.	.	[2f/
.	4G/	.	.
=304	=304	=304	=304
1C	2E/	1c]	2f/]
.	2G/	.	1e
1D	1F	2r	.
.	.	2A/	2d/
=305	=305	=305	=305
1AA	[0El	2A/	[0el
.	.	2A/	.
2r	.	2.c\	.
[2AA/	.	.	.
.	.	4B\	.
=306	=306	=306	=306
2AA/]	0E_	4A/	0e_
.	.	4G/	.
2GG/	.	1B	.
[1AA	.	.	.
.	.	[2A/	.
=307	=307	=307	=307
2AA/]	0E]	2A/]	0e]
2EE/	.	2G#i/	.
1AAl	.	1Al	.
!!LO:LB:i:g=z
=308||	=308||	=308||	=308||
*>M	*>M	*>M	*>M
*clefF4	*clefGv2	*clefGv2	*clefG2
*k[b-]	*k[]	*k[b-]	*k[]
*M2/1	*M2/1	*M2/1	*M2/1
*met(C|)	*met(C|)	*met(C|)	*met(C|)
!!section: Saluum fac populum tuum
!!!OMD: Saluum fac populum tuum
[0C	2.c\	0r	2.c/
.	4B\	.	4d/
.	2A/	.	4e/
.	.	.	4f/
.	4G/	.	[2g/
.	4F/	.	.
=309	=309	=309	=309
0C]	2E/	0r	2g/]
.	2F/	.	1f
.	1G	.	.
.	.	.	2e/
=310	=310	=310	=310
[0FF	[0F	2.F/	[0f
.	.	4G/	.
.	.	4A/	.
.	.	4B-\	.
.	.	[2c\	.
=311	=311	=311	=311
0FF]	0F_	2c\]	1f]
.	.	1B-	.
.	.	.	1r
.	.	2A/	.
=312	=312	=312	=312
1BB-	0F]	1B-	1.f
2BB-/	.	[1d	.
2BB-/	.	.	2f/
=313	=313	=313	=313
1BB-	1.B-	2d\]	1f
.	.	2d\	.
1r	.	1d	1r
.	2B-i\	.	.
=314	=314	=314	=314
1r	1B-i	0r	0f
1BB-	1r	.	.
=315	=315	=315	=315
0BB-	1r	1d	0f
.	1B-i	1d	.
=316	=316	=316	=316
1r	0B-i	2d\	1r
.	.	2.f\	.
1BB-	.	.	1d
.	.	4e\	.
.	.	4d\	.
.	.	4c\	.
=317	=317	=317	=317
0D	2.F/	1d	0f
.	4G/	.	.
.	2A/	[1F	.
.	[2B-i\	.	.
=318	=318	=318	=318
0C	2B-\]	0F]	0e
.	4A/	.	.
.	4G/	.	.
.	1A	.	.
=319	=319	=319	=319
[0BB-l	1.B-i	0G	[0dl
.	4A/	.	.
.	4G/	.	.
=320	=320	=320	=320
0BB-]	0Fl	0B-l	0d]
!!LO:LB:i:g=z
=321||	=321||	=321||	=321||
*>N	*>N	*>N	*>N
*clefF4	*clefGv2	*clefGv2	*clefG2
*k[b-]	*k[]	*k[b-]	*k[]
*M2/1	*M2/1	*M2/1	*M2/1
*met(C|)	*met(C|)	*met(C|)	*met(C|)
!!section: Et benedic hereditati tue
!!!OMD: Et benedic hereditati tue
0r	0r	1C	0r
.	.	2D/	.
.	.	[2F/	.
=322	=322	=322	=322
0r	0r	2F/]	1c
.	.	2E/	.
.	.	2F/	2d/
.	.	2A/	[2f/
=323	=323	=323	=323
0r	1C	1G	2f/]
.	.	.	2e/
.	2D/	1F	2f/
.	[2F/	.	2a/
=324	=324	=324	=324
1C	2F/]	1c	1g
.	2E/	.	.
2D\	2F/	1r	1f
[2F\	2A/	.	.
=325	=325	=325	=325
2F\]	1G	1r	2r
2E\	.	.	2c/
2F\	1F	1r	2d/
2A\	.	.	[2f/
=326	=326	=326	=326
1G	1C	1c	2f/]
.	.	.	2e/
1F	1c	1A	1f
=327	=327	=327	=327
1BB-	1d	1.B-	1f
1BB-	1d	.	1f
.	.	4A/	.
.	.	4G/	.
=328	=328	=328	=328
2.BB-/	2r	1.F	1d
.	2.d\	.	.
4C/	.	.	.
4D\	.	.	1f
4E\	4c\	.	.
[2F\	2A/	2A/	.
=329	=329	=329	=329
2F\]	1B-i	1G	1g
2E\	.	.	.
[1F	2A/	2F/	1a
.	[2c\	[2f\	.
=330	=330	=330	=330
1F]	2c\]	4f\]	2r
.	.	4e\	.
.	4B-i\	2c\	1cc
.	4A/	.	.
1r	1G	1d	.
.	.	.	2b-i\
=331	=331	=331	=331
2r	1A	1c	2a/
1F	.	.	2f/
.	1B-i	1r	1g
2E\	.	.	.
=332	=332	=332	=332
2F\	2A/	1r	2a/
2D\	1d	.	2f/
1A	.	1r	1e
.	2c\	.	.
=333	=333	=333	=333
2D\	2d\	2.f\	2d/
2F\	2A/	.	1a
.	.	4d\	.
1E	1B	1e	.
.	.	.	2g#i/
=334	=334	=334	=334
2.AA/	1A	1.e	1a
4BB-/	.	.	.
2C/	2E/	.	2g/
[2D\	[2F/	[2d\	[2f/
=335	=335	=335	=335
4D\]	4F/]	4d\]	4f/]
4E\	4G/	4G/	4e/
2AA/	1E	1A	2c/
1BB-	.	.	1d
.	2D/	2G/	.
=336	=336	=336	=336
0AAl	0El	0Al	0cl
!!LO:LB:i:g=z
=337||	=337||	=337||	=337||
*>O	*>O	*>O	*>O
*clefF4	*clefGv2	*clefGv2	*clefG2
*k[]	*k[]	*k[]	*k[]
*M3/1	*M3/1	*M3/1	*M3/1
*met(O)	*met(O)	*met(O)	*met(O)
!!section: Per singulos dies
!!!OMD: Per singulos dies
1.E	1.E	0B#	0.r
2D\	2F/	.	.
1C	1G	[1c	.
=338	=338	=338	=338
1AA	0A	1c]	0.r
0BB	.	0d	.
.	1G	.	.
=339	=339	=339	=339
0AA	1A	1c	1.e
.	1c	0e	.
.	.	.	2f/
1E	1B	.	1g
=340	=340	=340	=340
1F	1A	1d	0a
0E	0B	0e	.
.	.	.	1g#i
=341	=341	=341	=341
1.AA	1A	1.c	1.a
.	1.c	.	.
2BB/	.	2B\	2g/
1C	.	1A	1e
.	2B\	.	.
=342	=342	=342	=342
1D	0A	1A	1f
0BB	.	0D	0d
.	1G#i	.	.
=343	=343	=343	=343
0AA	0A	0E	0c
1r	1r	1r	1r
=344	=344	=344	=344
0AA	0c	0E	0cc
1AA	1c	1E	1cc
=345	=345	=345	=345
1FF	1c	1.F	1cc
1FF	1.A	.	1cc
.	.	2G/	.
1FF	.	1A	1cc
.	2B\	.	.
=346	=346	=346	=346
1F	1c	1A	0a
1D	1d	1G	.
1E	1G	1G	1g
=347	=347	=347	=347
1C	0c	1E	1e
0D	.	0F	0f
.	1B	.	.
=348	=348	=348	=348
0.Cl	0.cl	0.Gl	0.el
!!LO:LB:i:g=z
=349||	=349||	=349||	=349||
*>P	*>P	*>P	*>P
*clefF4	*clefGv2	*clefGv2	*clefG2
*k[]	*k[]	*k[]	*k[]
*M2/1	*M2/1	*M2/1	*M2/1
*met(C|)	*met(C|)	*met(C|)	*met(C|)
!!section: Dignare domine de isto
!!!OMD: Dignare domine de isto
0AA	0r	2.A/	0r
.	.	4B\	.
.	.	4c\	.
.	.	4d\	.
.	.	[2c\	.
=350	=350	=350	=350
1AA	0r	2c\]	0r
.	.	4B\	.
.	.	4A/	.
1AA	.	2.c\	.
.	.	4d\	.
=351	=351	=351	=351
1AA	0r	1e	0r
1AA	.	2A/	.
.	.	[2c\	.
=352	=352	=352	=352
1AA	0r	2c\]	0r
.	.	2A/	.
1GG	.	4B\	.
.	.	4A/	.
.	.	4G/	.
.	.	4F/	.
=353	=353	=353	=353
2AA/	0r	2E/	0r
2C/	.	1A	.
1BB	.	.	.
.	.	2G#i/	.
=354	=354	=354	=354
[0AA	2.A/	1A	0a
.	4B\	.	.
.	4c\	2r	.
.	4d\	.	.
.	[2c\	[2e\	.
=355	=355	=355	=355
0AA_	2c\]	2e\]	1a
.	4B\	4d\	.
.	4A/	4c\	.
.	2.c\	1e	1a
.	4d\	.	.
=356	=356	=356	=356
0AA]	1e	1A	1a
.	2A/	2r	1a
.	[2c\	[2e\	.
=357	=357	=357	=357
0r	2c\]	2e\]	1a
.	2A/	4d\	.
.	.	4c\	.
.	4B\	2.d\	2.g/
.	4A/	.	.
.	4G/	.	.
.	4F/	4c\	4a/
=358	=358	=358	=358
1r	2E/	1e	2b\
.	1A	.	2cc\
1E	.	2r	1b
.	2G#i/	2e\	.
=359	=359	=359	=359
2AA/	1A	2c\	1a
1C	.	1e	.
.	1E	.	1r
4BB/	.	4d\	.
4AA/	.	4c\	.
=360	=360	=360	=360
1BB	1G	1d	1r
2.AA/	[1A	2c\	[1e
.	.	[2e\	.
4BB/	.	.	.
=361	=361	=361	=361
2C/	1A]	2e\]	2e/]
2D\	.	4d\	2f/
.	.	4c\	.
2GG/	1G	1B	1g
[2G\	.	.	.
=362	=362	=362	=362
2G\]	0c	0A	0a
4F\	.	.	.
4E\	.	.	.
1F	.	.	.
=363	=363	=363	=363
1G	1B	2B\	1g
.	.	1G	.
1r	[1A	.	[1cc
.	.	4F/	.
.	.	4E/	.
=364	=364	=364	=364
0r	1A]	1F	1cc]
.	1d	1G	1b
=365	=365	=365	=365
1.F	1A	0r	1.a
.	2A/	.	.
4E\	[2c\	.	4g/
4D\	.	.	4f/
=366	=366	=366	=366
0C	2c\]	0r	0e
.	4B\	.	.
.	4A/	.	.
.	2G/	.	.
.	2c\	.	.
=367	=367	=367	=367
0D	2B\	0d	1f
.	1A	.	.
.	.	.	1a
.	4G/	.	.
.	4F/	.	.
=368	=368	=368	=368
1E	1G	1B#	1g
1C	2r	1c	[1e
.	[2G/	.	.
=369	=369	=369	=369
0D	2G/]	0A	1e]
.	4F/	.	.
.	4E/	.	.
.	1F	.	1d
=370	=370	=370	=370
0AAl	0El	0Al	0el
!!LO:LB:i:g=z
=371||	=371||	=371||	=371||
*>Q	*>Q	*>Q	*>Q
*clefF4	*clefGv2	*clefGv2	*clefG2
*k[]	*k[]	*k[]	*k[]
*M2/1	*M2/1	*M2/1	*M2/1
*met(C|)	*met(C|)	*met(C|)	*met(C|)
!!section: Fiat misericordia tua
!!!OMD: Fiat misericordia tua
0r	0r	1A	0a
.	.	2A/	.
.	.	2A/	.
=372	=372	=372	=372
0r	0r	2A/	2a/
.	.	2A/	2a/
.	.	1A	2a/
.	.	.	2a/
=373	=373	=373	=373
0r	0r	2A/	2a/
.	.	2.c\	2a/
.	.	.	1a
.	.	4B\	.
.	.	4A/	.
.	.	4G/	.
=374	=374	=374	=374
0r	0r	2F/	2r
.	.	2.A/	2.cc\
.	.	4G/	4b\
.	.	4F/	4a/
.	.	4E/	4g/
=375	=375	=375	=375
0r	0r	2D/	2f/
.	.	1d	2.a/
.	.	.	4g/
.	.	2c\	4f/
.	.	.	4e/
=376	=376	=376	=376
0r	0r	2B\	2d/
.	.	2.c\	1a
.	.	4B\	.
.	.	4A/	[2g/
.	.	4G/	.
=377	=377	=377	=377
0r	0r	1A	2g/]
.	.	.	2f#i/
.	.	1G	1g
=378	=378	=378	=378
0r	0r	1c	2r
.	.	.	1cc
.	.	1G	.
.	.	.	2b\
=379	=379	=379	=379
0r	0r	1.A	2a/
.	.	.	1cc
.	.	4G/	4b\
.	.	4F/	4a/
=380	=380	=380	=380
0r	0r	1E	1g
.	.	1F	[1a
=381	=381	=381	=381
0r	0r	1D	2a/]
.	.	.	2g/
.	.	1G	1e
=382	=382	=382	=382
0r	0r	2.A/	1f
.	.	4G/	.
.	.	4A/	1e
.	.	4B\	.
.	.	[2c\	.
=383	=383	=383	=383
0r	0r	2c\]	1d
.	.	2B\	.
.	.	1c	1g
=384	=384	=384	=384
0r	0r	2.A/	2a/
.	.	.	2.cc\
.	.	4B\	.
.	.	2c\	.
.	.	.	4b\
.	.	2d\	[2a/
=385	=385	=385	=385
1r	0r	1B	2a/]
.	.	.	2g#i/
1D	.	[1A	[1a
=386	=386	=386	=386
2D\	1r	1A]	1a]
2D\	.	.	.
2D\	1A	1r	1r
2D\	.	.	.
=387	=387	=387	=387
2D\	2A/	0r	0r
4C/	2A/	.	.
4BB/	.	.	.
2AA/	2A/	.	.
[2C/	2A/	.	.
=388	=388	=388	=388
4C/]	1A	0r	0r
4BB/	.	.	.
4AA/	.	.	.
4GG/	.	.	.
1FF	2A/	.	.
.	[2c\	.	.
=389	=389	=389	=389
1C	4c\]	0r	0r
.	4B\	.	.
.	4A/	.	.
.	4G/	.	.
2D\	2F/	.	.
4C/	[2A/	.	.
4BB/	.	.	.
=390	=390	=390	=390
1AA	4A/]	0r	0r
.	4G/	.	.
.	4F/	.	.
.	4E/	.	.
2BB/	2D/	.	.
2AA/	[2A/	.	.
=391	=391	=391	=391
1D	4A/]	0r	0r
.	4B\	.	.
.	4c\	.	.
.	4d\	.	.
2C/	2e\	.	.
2D\	[2d\	.	.
=392	=392	=392	=392
1E	2d\]	0r	0r
.	2c#i\	.	.
1D	1d	.	.
=393	=393	=393	=393
2.C/	1c	0r	2.e/
4D\	.	.	4f/
2E\	2B\	.	2g/
2AA/	2A/	.	[2a/
=394	=394	=394	=394
1E	1B	0r	2a/]
.	.	.	2g/
[1AA	2A/	.	2.a/
.	[2c\	.	.
.	.	.	4b\
=395	=395	=395	=395
1AA]	2c\]	0r	2cc\
.	4B\	.	2dd\
.	4A/	.	.
1r	1G#i	.	1b
=396	=396	=396	=396
2.AA/	0A	2.c\	[0a
4BB/	.	4d\	.
2C/	.	2e\	.
[2D\	.	[2f\	.
=397	=397	=397	=397
2D\]	1A	2f\]	1a]
2C/	.	2e\	.
2.D\	1r	2d\	1r
.	.	4c\	.
4E\	.	4B\	.
=398	=398	=398	=398
2F\	1r	2A/	0r
2G\	.	1d	.
1E	1e	.	.
.	.	2c#i\	.
=399	=399	=399	=399
1D	1.f	1d	1r
1r	.	1r	1a
.	4e\	.	.
.	4d\	.	.
=400	=400	=400	=400
0r	1e	0r	1cc
.	2d\	.	2b\
.	[2c\	.	[2a/
=401	=401	=401	=401
0r	4c\]	0r	2a/]
.	4B\	.	.
.	4A/	.	1g
.	4G/	.	.
.	1A	.	.
.	.	.	2f#i/
=402	=402	=402	=402
1D	1G	2r	1g
.	.	2d\	.
1E	1r	2B\	1r
.	.	2c\	.
=403	=403	=403	=403
2D\	0r	2d\	0r
1G	.	1e	.
2F\	.	[2d\	.
=404	=404	=404	=404
2E\	0r	2d\]	0r
2F\	.	1c	.
1D	.	.	.
.	.	2B\	.
=405	=405	=405	=405
1C	1r	1c	1r
[1F	1c	1A	1a
=406	=406	=406	=406
2F\]	1.c	2r	1.a
2F\	.	2A/	.
1F	.	2F/	.
.	2c\	[2f\	2a/
=407	=407	=407	=407
1C	2.c\	2f\]	1g
.	.	2e\	.
.	4B\	.	.
1F	4A/	2d\	1f
.	4G/	.	.
.	[2A/	2c\	.
=408	=408	=408	=408
1C	2A/]	1c	1.e
.	2G/	.	.
[1D	1F	[1A	.
.	.	.	4d/
.	.	.	4c/
=409	=409	=409	=409
1D]	1F	1A]	1d
1AAl	1El	1Al	1el
==	==	==	==
*-	*-	*-	*-
!!!RDF**kern: l=long note in original notation
!!!RDF**kern: i=editorial accidental
!!!ENC:	Jesse Rodin 8-26-2012
!!!END:	2012/08/26/
!!!EED:	Jesse Rodin
!!!EEV:	2012/11/05/
!!attribution-level@Jos: 4 (questionable)
!!!ONB:	Translated from MusicXML and edited on 2012/11/05/ by Craig Sapp
!!muse2ps: C^de Silva?/Josquin?\n@{SCT}^i2I150v85,85,85,150Q8c120
